world_stage/static/flags/ABW/square.svg

<svg height="800" viewBox="0 0 800 800" width="800" xmlns="http://www.w3.org/2000/svg"><path d="m0 800h800v-799.99998h-800z" fill="#4189dd" stroke-width="1.08866"/><path d="m0 577.77767h800v-44.44267h-800zm0 0v44.44533zm0 88.88933h800v-44.444h-800z" fill="#f9d616" stroke-width="1.08866"/><g stroke-width="1.33333"><path d="m177.778 44.444667 31.42667 101.906663 101.90666 31.42667-101.90666 31.42666-31.42667 101.90667-31.42667-101.90667-101.90666-31.42666 101.90666-31.42667z" fill="#fff"/><path d="m177.778 75.0612 24.21067 78.50533 78.50666 24.212-78.50666 24.20933-24.21067 78.50667-24.21067-78.50667-78.506661-24.20933 78.506661-24.212z" fill="#d21034"/></g></svg>

<?xml version="1.0" encoding="UTF-8" standalone="no"?>
<svg
   height="800"
   viewBox="0 0 800 800"
   width="800"
   version="1.1"
   id="svg4"
   sodipodi:docname="square.svg"
   inkscape:version="1.4 (e7c3feb1, 2024-10-09)"
   xmlns:inkscape="http://www.inkscape.org/namespaces/inkscape"
   xmlns:sodipodi="http://sodipodi.sourceforge.net/DTD/sodipodi-0.dtd"
   xmlns="http://www.w3.org/2000/svg"
   xmlns:svg="http://www.w3.org/2000/svg">
  <defs
     id="defs4" />
  <sodipodi:namedview
     id="namedview4"
     pagecolor="#ffffff"
     bordercolor="#000000"
     borderopacity="0.25"
     inkscape:showpageshadow="2"
     inkscape:pageopacity="0.0"
     inkscape:pagecheckerboard="0"
     inkscape:deskcolor="#d1d1d1"
     inkscape:zoom="0.34039388"
     inkscape:cx="452.41707"
     inkscape:cy="492.07701"
     inkscape:window-width="1512"
     inkscape:window-height="748"
     inkscape:window-x="0"
     inkscape:window-y="38"
     inkscape:window-maximized="0"
     inkscape:current-layer="svg4" />
  <path
     d="M 0,800 H 800 V 2e-5 H 0 Z"
     fill="#4189dd"
     id="path1"
     style="stroke-width:1.08866" />
  <path
     d="M 0,577.77767 H 800 V 533.335 H 0 Z m 0,0 V 622.223 Z M 0,666.667 H 800 V 622.223 H 0 Z"
     fill="#f9d616"
     id="path2"
     style="stroke-width:1.08866" />
  <path
     d="M 177.778,44.444667 209.20467,146.35133 311.11133,177.778 209.20467,209.20466 177.778,311.11133 146.35133,209.20466 44.44467,177.778 146.35133,146.35133 Z"
     fill="#ffffff"
     id="path3"
     style="stroke-width:1.33333" />
  <path
     d="m 177.778,75.0612 24.21067,78.50533 78.50666,24.212 -78.50666,24.20933 -24.21067,78.50667 -24.21067,-78.50667 -78.506661,-24.20933 78.506661,-24.212 z"
     fill="#d21034"
     id="path4"
     style="stroke-width:1.33333" />
</svg>
